X: 38360
T: Stan Pickett's
R: polka
M: 2/4
K: Gmajor
|:dB GB|AB A2-|Af ef|ed BB/c/|
dB GB|AB A2-|Af ed|BA GB/c/:|
|:dg ge|fg a2-|af ef|ed BB/c/|
dg ge|fg a2-|af ed|BA GB/c/:|

